media/img/firefox/products/pocket-MR2.svg

<svg width="335" height="223" fill="none" xmlns="http://www.w3.org/2000/svg"><g clip-path="url(#a)"><path d="M276.71 14.088H28.264a2.176 2.176 0 0 0-2.176 2.176v171.387c0 1.202.974 2.176 2.176 2.176H276.71a2.176 2.176 0 0 0 2.176-2.176V16.264a2.176 2.176 0 0 0-2.176-2.176Z" fill="#fff" stroke="#F0F0F4" stroke-width="2.176"/><path fill-rule="evenodd" clip-rule="evenodd" d="M25 29.998h254.974V48.13H25V29.998Z" fill="#F0F0F4"/><path d="M234.691 35.664H70.284c-.6 0-1.088.487-1.088 1.088v5.757c0 .6.487 1.088 1.088 1.088h164.407c.601 0 1.088-.487 1.088-1.088v-5.757c0-.6-.487-1.088-1.088-1.088Z" fill="#fff"/><path fill-rule="evenodd" clip-rule="evenodd" d="M27.176 13h250.622c1.202 0 2.176 1.031 2.176 2.304V31H25V15.304c0-1.273.974-2.304 2.176-2.304Z" fill="#CFCFD8"/><path fill-rule="evenodd" clip-rule="evenodd" d="M47 20a4 4 0 0 1 4-4h42a4 4 0 0 1 4 4v4a4 4 0 0 1-4 4H51a4 4 0 0 1-4-4v-4Z" fill="#F0F0F4"/><g opacity=".8"><path opacity=".8" fill-rule="evenodd" clip-rule="evenodd" d="M120.463 87.882h63.642v41.612h-63.642V87.882Zm0 48.955h63.642v7.343h-63.642v-7.343Zm0 14.687h63.642v3.672h-63.642v-3.672Zm0 11.015h63.642v3.672h-63.642v-3.672Zm0 9.791h63.642v3.672h-63.642v-3.672ZM43.359 87.883h64.866v41.612H43.359V87.883Zm0 48.955h64.866v7.343H43.359v-7.343Zm0 14.686h64.866v3.672H43.359v-3.672Zm0 11.015h64.866v3.672H43.359v-3.672Zm0 9.791h64.866v3.672H43.359v-3.672ZM196.344 87.883h64.866v41.612h-64.866V87.883Zm0 48.955h64.866v7.343h-64.866v-7.343Zm0 14.686h64.866v3.672h-64.866v-3.672Zm0 11.015h64.866v3.672h-64.866v-3.672Zm0 9.791h64.866v3.672h-64.866v-3.672Z" fill="#F0F0F4"/><path opacity=".8" d="M140.888 56.072c-1.358.088-2.18.863-2.18 2.242v8.257c0 6.706 6.67 11.976 12.44 11.935 6.487-.047 12.48-5.526 12.48-11.935v-8.257c0-1.384-.873-2.164-2.242-2.242h-20.498Zm5.255 6.716 5.005 4.756 5.01-4.756c2.242-.941 3.22 1.618 2.3 2.368l-6.525 6.227c-.213.203-1.353.203-1.566 0l-6.524-6.227c-.88-.828.265-3.429 2.3-2.368Z" fill="#DFDFE6"/></g><path fill-rule="evenodd" clip-rule="evenodd" d="m213 223.97.29-129.738c0-6.755 5.467-12.232 12.21-12.232h69.974c6.743 0 12.21 5.477 12.21 12.232l-.29 129.738" fill="#F0F0F4"/><path d="M269.958 87.397h-18.89a.899.899 0 0 0-.899.899v.001c0 .496.402.899.899.899h18.89a.9.9 0 0 0 .899-.899v-.001a.9.9 0 0 0-.899-.899Z" fill="#D1D1D7" fill-opacity=".6"/><path fill-rule="evenodd" clip-rule="evenodd" d="M300.726 93.993c.572 0 1.036 1.172 1.036 2.618l-.12 127.113H219.82l.12-127.113c0-1.446.464-2.618 1.035-2.618h79.751Z" fill="#fff"/><path fill-rule="evenodd" clip-rule="evenodd" d="M300.726 93.993c.572 0 1.036.487 1.036 1.088v3.228H219.94V95.08c0-.601.464-1.088 1.035-1.088h79.751v.001Z" fill="#D1D1D7"/><path opacity=".8" fill-rule="evenodd" clip-rule="evenodd" d="M228.666 127.782h64.866v31.821h-64.866v-31.821Zm0 39.164h64.866v7.343h-64.866v-7.343Zm0 13.463h64.866v3.672h-64.866v-3.672Zm0 9.791h64.866v3.672h-64.866V190.2Zm0 9.791h64.866v3.672h-64.866v-3.672Zm0 9.791h45.283v3.672h-45.283v-3.672Z" fill="#F0F0F4"/><path d="M253.168 104.671c-1.019.067-1.635.648-1.635 1.682v6.193c0 5.03 5.002 8.982 9.33 8.95 4.865-.034 9.36-4.143 9.36-8.95v-6.193c0-1.038-.655-1.623-1.681-1.682h-15.374Zm3.94 5.038 3.755 3.566 3.757-3.566c1.682-.706 2.416 1.213 1.725 1.775l-4.893 4.67c-.16.153-1.015.153-1.175 0l-4.893-4.67c-.66-.62.2-2.571 1.725-1.775h-.001Z" fill="#DFDFE6"/><g filter="url(#b)"><path d="M80.11 39H11.77A3.77 3.77 0 0 0 8 42.77v68.34a3.77 3.77 0 0 0 3.77 3.77h68.34a3.77 3.77 0 0 0 3.77-3.77V42.77A3.77 3.77 0 0 0 80.11 39Z" fill="#000"/></g><path d="M80.11 39H11.77A3.77 3.77 0 0 0 8 42.77v68.34a3.77 3.77 0 0 0 3.77 3.77h68.34a3.77 3.77 0 0 0 3.77-3.77V42.77A3.77 3.77 0 0 0 80.11 39Z" fill="#fff"/><path fill-rule="evenodd" clip-rule="evenodd" d="M15.343 68.578v4.613h4.952v13.384h5.441V73.191h4.95v-4.613H15.343Zm16.189 0v17.997h14.897v-4.612h-9.453V79.72h9.45v-4.287h-9.45v-2.242h9.45v-4.613H31.532Z" fill="#FF2B06"/><mask id="c" style="mask-type:alpha" maskUnits="userSpaceOnUse" x="47" y="68" width="18" height="19"><path fill-rule="evenodd" clip-rule="evenodd" d="M47.343 68.577h16.905v17.998H47.343V68.577Z" fill="#fff"/></mask><g mask="url(#c)"><path fill-rule="evenodd" clip-rule="evenodd" d="M52.787 81.962h2.129c3.391 0 3.887-2.799 3.887-4.49 0-1.131-.348-4.282-4.283-4.282h-1.733v8.772Zm-5.444-13.385h8.934c5.89 0 7.97 4.437 7.97 8.973 0 5.522-2.87 9.025-9.033 9.025h-7.871V68.577Z" fill="#FF2B06"/></g><mask id="d" style="mask-type:alpha" maskUnits="userSpaceOnUse" x="64" y="68" width="13" height="12"><path fill-rule="evenodd" clip-rule="evenodd" d="M64.801 68.543H76.06V79.64H64.801V68.543Z" fill="#fff"/></mask><g mask="url(#d)"><path fill-rule="evenodd" clip-rule="evenodd" d="m72.07 79.64-1.661-2.805-1.619 2.805h-3.989l3.787-5.672-3.647-5.425h3.991l1.477 2.681 1.52-2.681h3.99l-3.646 5.425 3.787 5.672h-3.99Z" fill="#FF2B06"/></g><g filter="url(#e)"><path d="M145.218 127H70.77a3.77 3.77 0 0 0-3.77 3.77v74.448a3.77 3.77 0 0 0 3.77 3.77h74.448a3.77 3.77 0 0 0 3.77-3.77V130.77a3.77 3.77 0 0 0-3.77-3.77Z" fill="#000"/></g><path d="M145.218 127H70.77a3.77 3.77 0 0 0-3.77 3.77v74.448a3.77 3.77 0 0 0 3.77 3.77h74.448a3.77 3.77 0 0 0 3.77-3.77V130.77a3.77 3.77 0 0 0-3.77-3.77Z" fill="#000"/><path fill-rule="evenodd" clip-rule="evenodd" d="M118.489 142.058c1.29.116 3.314.762 4.84 2.124 1.62 1.603 1.989 4.035 1.421 6.246-.505 1.97-1.07 2.994-3.043 4.356-1.994 1.37-4.405 1.254-4.405 1.254v8.535l4.075 3.36-4.076 3.35v11.627s4.084-2.385 6.616-7.725c0 0 .105-.29.343-.84.225 1.43.096 4.326-1.492 8.043-1.197 2.8-3.373 5.494-6.103 7.029-4.838 2.733-8.466 2.994-12.356 2.172-4.554-.955-8.69-3.563-11.513-8.11-1.984-3.196-2.872-6.922-2.79-10.93.159-7.87 5.904-14.657 12.537-17.187.807-.308 1.129-.51 2.274-.618-.528.368-1.138.84-1.888 1.343-2.135 1.429-3.965 4.277-4.746 6.469l12.873-5.852v18.337l-10.381 5.3c1.183 1.67 4.777 4.201 7.85 4.557 5.231.59 8.3-1.737 8.3-1.737l-.001-11.877-4.053-3.35 4.055-3.35v-8.546c-2.21-.26-4.896-1.003-6.466-1.4-2.309-.579-10.007-2.78-11.217-2.964-1.209-.183-2.7-.125-3.603.696-.903.83-1.462 2.287-1.078 3.6.218.744.72 1.178 1.1 1.603 0 0-.445-.039-1.25-.53-1.454-.889-2.559-2.627-2.692-4.77-.171-2.81.964-5.34 3.239-7.038 1.976-1.294 4.21-2.125 6.81-1.748 3.79.55 8.888 2.732 13.428 3.842 1.76.435 3.121.58 4.358-.154.576-.425 1.589-1.516.76-2.964-.966-1.7-2.819-1.661-4.388-1.96 1.35-.29 1.647-.29 2.662-.193Zm-15.307 36.458v-17.708l-5.227 2.375c-.002 0-1.333 3.041-1.1 7.454.184 3.447 2.076 7.571 3.53 9.299l2.797-1.42Z" fill="#fff"/><g filter="url(#f)"><path d="M322.215 2H258.77A3.77 3.77 0 0 0 255 5.77v63.445a3.77 3.77 0 0 0 3.77 3.77h63.445a3.77 3.77 0 0 0 3.77-3.77V5.77a3.77 3.77 0 0 0-3.77-3.77Z" fill="#000"/></g><path d="M322.215 2H258.77A3.77 3.77 0 0 0 255 5.77v63.445a3.77 3.77 0 0 0 3.77 3.77h63.445a3.77 3.77 0 0 0 3.77-3.77V5.77a3.77 3.77 0 0 0-3.77-3.77Z" fill="#4C9FEA"/><path fill-rule="evenodd" clip-rule="evenodd" d="M282.842 53.403c14.317 0 22.148-11.773 22.148-21.982 0-.334 0-.667-.023-.998a15.773 15.773 0 0 0 3.884-4 15.639 15.639 0 0 1-4.471 1.216 7.762 7.762 0 0 0 3.422-4.273c-1.528.9-3.2 1.534-4.943 1.875a7.832 7.832 0 0 0-9.352-1.52c-3.105 1.65-4.71 5.161-3.913 8.566a22.158 22.158 0 0 1-16.043-8.071c-2.066 3.53-1.01 8.046 2.41 10.313a7.77 7.77 0 0 1-3.533-.967v.098c.001 3.677 2.613 6.845 6.245 7.573a7.829 7.829 0 0 1-3.515.132c1.02 3.147 3.942 5.303 7.273 5.365a15.695 15.695 0 0 1-11.52 3.203 22.159 22.159 0 0 0 11.93 3.464" fill="#fff"/><g filter="url(#g)"><path d="M240.304 116H192.77a3.77 3.77 0 0 0-3.77 3.77v47.534a3.77 3.77 0 0 0 3.77 3.77h47.534a3.77 3.77 0 0 0 3.77-3.77V119.77a3.77 3.77 0 0 0-3.77-3.77Z" fill="#000"/></g><path d="M240.304 116H192.77a3.77 3.77 0 0 0-3.77 3.77v47.534a3.77 3.77 0 0 0 3.77 3.77h47.534a3.77 3.77 0 0 0 3.77-3.77V119.77a3.77 3.77 0 0 0-3.77-3.77Z" fill="#EA3423"/><path fill-rule="evenodd" clip-rule="evenodd" d="M207.358 130.687v26.925l23.254-13.462-23.254-13.463Z" fill="#FEFEFE"/></g><defs><filter id="b" x="-1" y="31" width="93.88" height="93.88" filterUnits="userSpaceOnUse" color-interpolation-filters="sRGB"><feFlood flood-opacity="0" result="BackgroundImageFix"/><feColorMatrix in="SourceAlpha" values="0 0 0 0 0 0 0 0 0 0 0 0 0 0 0 0 0 0 127 0" result="hardAlpha"/><feOffset dy="1"/><feGaussianBlur stdDeviation="4.5"/><feColorMatrix values="0 0 0 0 0.12549 0 0 0 0 0.0705882 0 0 0 0 0.227451 0 0 0 0.24 0"/><feBlend in2="BackgroundImageFix" result="effect1_dropShadow_951:14891"/><feBlend in="SourceGraphic" in2="effect1_dropShadow_951:14891" result="shape"/></filter><filter id="e" x="58" y="119" width="99.988" height="99.988" filterUnits="userSpaceOnUse" color-interpolation-filters="sRGB"><feFlood flood-opacity="0" result="BackgroundImageFix"/><feColorMatrix in="SourceAlpha" values="0 0 0 0 0 0 0 0 0 0 0 0 0 0 0 0 0 0 127 0" result="hardAlpha"/><feOffset dy="1"/><feGaussianBlur stdDeviation="4.5"/><feColorMatrix values="0 0 0 0 0.12549 0 0 0 0 0.0705882 0 0 0 0 0.227451 0 0 0 0.24 0"/><feBlend in2="BackgroundImageFix" result="effect1_dropShadow_951:14891"/><feBlend in="SourceGraphic" in2="effect1_dropShadow_951:14891" result="shape"/></filter><filter id="f" x="246" y="-6" width="88.985" height="88.985" filterUnits="userSpaceOnUse" color-interpolation-filters="sRGB"><feFlood flood-opacity="0" result="BackgroundImageFix"/><feColorMatrix in="SourceAlpha" values="0 0 0 0 0 0 0 0 0 0 0 0 0 0 0 0 0 0 127 0" result="hardAlpha"/><feOffset dy="1"/><feGaussianBlur stdDeviation="4.5"/><feColorMatrix values="0 0 0 0 0.12549 0 0 0 0 0.0705882 0 0 0 0 0.227451 0 0 0 0.24 0"/><feBlend in2="BackgroundImageFix" result="effect1_dropShadow_951:14891"/><feBlend in="SourceGraphic" in2="effect1_dropShadow_951:14891" result="shape"/></filter><filter id="g" x="180" y="108" width="73.074" height="73.074" filterUnits="userSpaceOnUse" color-interpolation-filters="sRGB"><feFlood flood-opacity="0" result="BackgroundImageFix"/><feColorMatrix in="SourceAlpha" values="0 0 0 0 0 0 0 0 0 0 0 0 0 0 0 0 0 0 127 0" result="hardAlpha"/><feOffset dy="1"/><feGaussianBlur stdDeviation="4.5"/><feColorMatrix values="0 0 0 0 0.12549 0 0 0 0 0.0705882 0 0 0 0 0.227451 0 0 0 0.24 0"/><feBlend in2="BackgroundImageFix" result="effect1_dropShadow_951:14891"/><feBlend in="SourceGraphic" in2="effect1_dropShadow_951:14891" result="shape"/></filter><clipPath id="a"><path fill="#fff" d="M0 0h335v223H0z"/></clipPath></defs></svg>

<svg width="335" height="223" viewBox="0 0 335 223" fill="none" xmlns="http://www.w3.org/2000/svg">
<g clip-path="url(#clip0_951:14891)">
<path d="M276.71 14.088H28.264C27.0622 14.088 26.088 15.0622 26.088 16.264V187.651C26.088 188.853 27.0622 189.827 28.264 189.827H276.71C277.912 189.827 278.886 188.853 278.886 187.651V16.264C278.886 15.0622 277.912 14.088 276.71 14.088Z" fill="white" stroke="#F0F0F4" stroke-width="2.176"/>
<path fill-rule="evenodd" clip-rule="evenodd" d="M25 29.998H279.974V48.13H25V29.998Z" fill="#F0F0F4"/>
<path d="M234.691 35.664H70.284C69.6832 35.664 69.196 36.1511 69.196 36.752V42.509C69.196 43.1099 69.6832 43.597 70.284 43.597H234.691C235.292 43.597 235.779 43.1099 235.779 42.509V36.752C235.779 36.1511 235.292 35.664 234.691 35.664Z" fill="white"/>
<path fill-rule="evenodd" clip-rule="evenodd" d="M27.176 13H277.798C279 13 279.974 14.0314 279.974 15.3043V31H25V15.3043C25 14.0314 25.974 13 27.176 13Z" fill="#CFCFD8"/>
<path fill-rule="evenodd" clip-rule="evenodd" d="M47 20C47 17.7909 48.7909 16 51 16H93C95.2091 16 97 17.7909 97 20V24C97 26.2091 95.2091 28 93 28H51C48.7909 28 47 26.2091 47 24V20Z" fill="#F0F0F4"/>
<g opacity="0.8">
<g opacity="0.8">
<path opacity="0.8" fill-rule="evenodd" clip-rule="evenodd" d="M120.463 87.882H184.105V129.494H120.463V87.882ZM120.463 136.837H184.105V144.18H120.463V136.837ZM120.463 151.524H184.105V155.196H120.463V151.524ZM120.463 162.539H184.105V166.211H120.463V162.539ZM120.463 172.33H184.105V176.002H120.463V172.33Z" fill="#F0F0F4"/>
</g>
<g opacity="0.8">
<path opacity="0.8" fill-rule="evenodd" clip-rule="evenodd" d="M43.359 87.883H108.225V129.495H43.359V87.883ZM43.359 136.838H108.225V144.181H43.359V136.838ZM43.359 151.524H108.225V155.196H43.359V151.524ZM43.359 162.539H108.225V166.211H43.359V162.539ZM43.359 172.33H108.225V176.002H43.359V172.33Z" fill="#F0F0F4"/>
</g>
<g opacity="0.8">
<path opacity="0.8" fill-rule="evenodd" clip-rule="evenodd" d="M196.344 87.883H261.21V129.495H196.344V87.883ZM196.344 136.838H261.21V144.181H196.344V136.838ZM196.344 151.524H261.21V155.196H196.344V151.524ZM196.344 162.539H261.21V166.211H196.344V162.539ZM196.344 172.33H261.21V176.002H196.344V172.33Z" fill="#F0F0F4"/>
</g>
<path opacity="0.8" d="M140.888 56.072C139.53 56.16 138.708 56.935 138.708 58.314V66.571C138.708 73.277 145.378 78.547 151.148 78.506C157.635 78.459 163.628 72.98 163.628 66.571V58.314C163.628 56.93 162.755 56.15 161.386 56.072H140.888V56.072ZM146.143 62.788L151.148 67.544L156.158 62.788C158.4 61.847 159.378 64.406 158.458 65.156L151.933 71.383C151.72 71.586 150.58 71.586 150.367 71.383L143.843 65.156C142.963 64.328 144.108 61.727 146.143 62.788V62.788Z" fill="#DFDFE6"/>
</g>
<path fill-rule="evenodd" clip-rule="evenodd" d="M213 223.97L213.29 94.232C213.29 87.477 218.757 82 225.5 82H295.474C302.217 82 307.684 87.477 307.684 94.232L307.394 223.97" fill="#F0F0F4"/>
<path d="M269.958 87.397H251.068C250.571 87.397 250.169 87.7995 250.169 88.296V88.297C250.169 88.7935 250.571 89.196 251.068 89.196H269.958C270.454 89.196 270.857 88.7935 270.857 88.297V88.296C270.857 87.7995 270.454 87.397 269.958 87.397Z" fill="#D1D1D7" fill-opacity="0.6"/>
<path fill-rule="evenodd" clip-rule="evenodd" d="M300.726 93.993C301.298 93.993 301.762 95.165 301.762 96.611L301.642 223.724H219.82L219.94 96.611C219.94 95.165 220.404 93.993 220.975 93.993H300.726V93.993Z" fill="white"/>
<path fill-rule="evenodd" clip-rule="evenodd" d="M300.726 93.993C301.298 93.993 301.762 94.48 301.762 95.081V98.309H219.94V95.08C219.94 94.479 220.404 93.992 220.975 93.992H300.726V93.993Z" fill="#D1D1D7"/>
<g opacity="0.8">
<path opacity="0.8" fill-rule="evenodd" clip-rule="evenodd" d="M228.666 127.782H293.532V159.603H228.666V127.782ZM228.666 166.946H293.532V174.289H228.666V166.946ZM228.666 180.409H293.532V184.081H228.666V180.409ZM228.666 190.2H293.532V193.872H228.666V190.2ZM228.666 199.991H293.532V203.663H228.666V199.991ZM228.666 209.782H273.949V213.454H228.666V209.782Z" fill="#F0F0F4"/>
</g>
<path d="M253.168 104.671C252.149 104.738 251.533 105.319 251.533 106.353V112.546C251.533 117.576 256.535 121.528 260.863 121.496C265.728 121.462 270.223 117.353 270.223 112.546V106.353C270.223 105.315 269.568 104.73 268.542 104.671H253.168V104.671ZM257.108 109.709L260.863 113.275L264.62 109.709C266.302 109.003 267.036 110.922 266.345 111.484L261.452 116.154C261.292 116.307 260.437 116.307 260.277 116.154L255.384 111.484C254.724 110.864 255.584 108.913 257.109 109.709H257.108Z" fill="#DFDFE6"/>
<g filter="url(#filter0_d_951:14891)">
<path d="M80.11 39H11.77C9.68789 39 8 40.6879 8 42.77V111.11C8 113.192 9.68789 114.88 11.77 114.88H80.11C82.1921 114.88 83.88 113.192 83.88 111.11V42.77C83.88 40.6879 82.1921 39 80.11 39Z" fill="black"/>
</g>
<path d="M80.11 39H11.77C9.68789 39 8 40.6879 8 42.77V111.11C8 113.192 9.68789 114.88 11.77 114.88H80.11C82.1921 114.88 83.88 113.192 83.88 111.11V42.77C83.88 40.6879 82.1921 39 80.11 39Z" fill="white"/>
<path fill-rule="evenodd" clip-rule="evenodd" d="M15.343 68.578V73.191H20.295V86.575H25.736V73.191H30.686V68.578H15.343ZM31.532 68.578V86.575H46.429V81.963H36.976V79.72H46.426V75.433H36.976V73.191H46.426V68.578H31.532Z" fill="#FF2B06"/>
<mask id="mask0_951:14891" style="mask-type:alpha" maskUnits="userSpaceOnUse" x="47" y="68" width="18" height="19">
<path fill-rule="evenodd" clip-rule="evenodd" d="M47.343 68.577H64.248V86.575H47.343V68.577Z" fill="white"/>
</mask>
<g mask="url(#mask0_951:14891)">
<path fill-rule="evenodd" clip-rule="evenodd" d="M52.787 81.962H54.916C58.307 81.962 58.803 79.163 58.803 77.472C58.803 76.341 58.455 73.19 54.52 73.19H52.787V81.962ZM47.343 68.577H56.277C62.167 68.577 64.247 73.014 64.247 77.55C64.247 83.072 61.377 86.575 55.214 86.575H47.343V68.577Z" fill="#FF2B06"/>
</g>
<mask id="mask1_951:14891" style="mask-type:alpha" maskUnits="userSpaceOnUse" x="64" y="68" width="13" height="12">
<path fill-rule="evenodd" clip-rule="evenodd" d="M64.801 68.543H76.06V79.64H64.801V68.543Z" fill="white"/>
</mask>
<g mask="url(#mask1_951:14891)">
<path fill-rule="evenodd" clip-rule="evenodd" d="M72.07 79.64L70.409 76.835L68.79 79.64H64.801L68.588 73.968L64.941 68.543H68.932L70.409 71.224L71.929 68.543H75.919L72.273 73.968L76.06 79.64H72.07Z" fill="#FF2B06"/>
</g>
<g filter="url(#filter1_d_951:14891)">
<path d="M145.218 127H70.77C68.6879 127 67 128.688 67 130.77V205.218C67 207.3 68.6879 208.988 70.77 208.988H145.218C147.3 208.988 148.988 207.3 148.988 205.218V130.77C148.988 128.688 147.3 127 145.218 127Z" fill="black"/>
</g>
<path d="M145.218 127H70.77C68.6879 127 67 128.688 67 130.77V205.218C67 207.3 68.6879 208.988 70.77 208.988H145.218C147.3 208.988 148.988 207.3 148.988 205.218V130.77C148.988 128.688 147.3 127 145.218 127Z" fill="black"/>
<path fill-rule="evenodd" clip-rule="evenodd" d="M118.489 142.058C119.779 142.174 121.803 142.82 123.329 144.182C124.949 145.785 125.318 148.217 124.75 150.428C124.245 152.398 123.68 153.422 121.707 154.784C119.713 156.154 117.302 156.038 117.302 156.038V164.573L121.377 167.933L117.301 171.283V182.91C117.301 182.91 121.385 180.525 123.917 175.185C123.917 175.185 124.022 174.895 124.26 174.345C124.485 175.775 124.356 178.671 122.768 182.388C121.571 185.188 119.395 187.882 116.665 189.417C111.827 192.15 108.199 192.411 104.309 191.589C99.755 190.634 95.619 188.026 92.796 183.479C90.812 180.283 89.924 176.557 90.006 172.549C90.165 164.679 95.91 157.892 102.543 155.362C103.35 155.054 103.672 154.852 104.817 154.744C104.289 155.112 103.679 155.584 102.929 156.087C100.794 157.516 98.964 160.364 98.183 162.556L111.056 156.704V175.041L100.675 180.341C101.858 182.011 105.452 184.542 108.525 184.898C113.756 185.488 116.825 183.161 116.825 183.161L116.824 171.284L112.771 167.934L116.826 164.584V156.038C114.616 155.778 111.93 155.035 110.36 154.638C108.051 154.059 100.353 151.858 99.143 151.674C97.934 151.491 96.443 151.549 95.54 152.37C94.637 153.2 94.078 154.657 94.462 155.97C94.68 156.714 95.182 157.148 95.562 157.573C95.562 157.573 95.117 157.534 94.312 157.043C92.858 156.154 91.753 154.416 91.62 152.273C91.449 149.463 92.584 146.933 94.859 145.235C96.835 143.941 99.069 143.11 101.669 143.487C105.459 144.037 110.557 146.219 115.097 147.329C116.857 147.764 118.218 147.909 119.455 147.175C120.031 146.75 121.044 145.659 120.215 144.211C119.249 142.511 117.396 142.55 115.827 142.251C117.177 141.961 117.474 141.961 118.489 142.058V142.058ZM103.182 178.516V160.808L97.955 163.183C97.953 163.183 96.622 166.224 96.855 170.637C97.039 174.084 98.931 178.208 100.385 179.936L103.182 178.516V178.516Z" fill="white"/>
<g filter="url(#filter2_d_951:14891)">
<path d="M322.215 2H258.77C256.688 2 255 3.68789 255 5.77V69.215C255 71.2971 256.688 72.985 258.77 72.985H322.215C324.297 72.985 325.985 71.2971 325.985 69.215V5.77C325.985 3.68789 324.297 2 322.215 2Z" fill="black"/>
</g>
<path d="M322.215 2H258.77C256.688 2 255 3.68789 255 5.77V69.215C255 71.2971 256.688 72.985 258.77 72.985H322.215C324.297 72.985 325.985 71.2971 325.985 69.215V5.77C325.985 3.68789 324.297 2 322.215 2Z" fill="#4C9FEA"/>
<path fill-rule="evenodd" clip-rule="evenodd" d="M282.842 53.403C297.159 53.403 304.99 41.63 304.99 31.421C304.99 31.087 304.99 30.754 304.967 30.423C306.489 29.3309 307.804 27.9764 308.851 26.423C307.429 27.0482 305.922 27.458 304.38 27.639C306.002 26.6775 307.218 25.1586 307.802 23.366C306.274 24.266 304.602 24.9 302.859 25.241C301.68 24.0012 300.128 23.1814 298.439 22.907C296.75 22.6325 295.018 22.9184 293.507 23.721C290.402 25.371 288.797 28.882 289.594 32.287C286.505 32.136 283.481 31.3399 280.718 29.9498C277.955 28.5598 275.514 26.6066 273.551 24.216C271.485 27.746 272.541 32.262 275.961 34.529C274.723 34.4928 273.512 34.1613 272.428 33.562V33.66C272.429 37.337 275.041 40.505 278.673 41.233C277.527 41.543 276.325 41.5882 275.158 41.365C276.178 44.512 279.1 46.668 282.431 46.73C279.164 49.2759 275.023 50.4272 270.911 49.933C274.476 52.2015 278.615 53.4034 282.841 53.397" fill="white"/>
<g filter="url(#filter3_d_951:14891)">
<path d="M240.304 116H192.77C190.688 116 189 117.688 189 119.77V167.304C189 169.386 190.688 171.074 192.77 171.074H240.304C242.386 171.074 244.074 169.386 244.074 167.304V119.77C244.074 117.688 242.386 116 240.304 116Z" fill="black"/>
</g>
<path d="M240.304 116H192.77C190.688 116 189 117.688 189 119.77V167.304C189 169.386 190.688 171.074 192.77 171.074H240.304C242.386 171.074 244.074 169.386 244.074 167.304V119.77C244.074 117.688 242.386 116 240.304 116Z" fill="#EA3423"/>
<path fill-rule="evenodd" clip-rule="evenodd" d="M207.358 130.687V157.612L230.612 144.15L207.358 130.687Z" fill="#FEFEFE"/>
</g>
<defs>
<filter id="filter0_d_951:14891" x="-1" y="31" width="93.88" height="93.88" filterUnits="userSpaceOnUse" color-interpolation-filters="sRGB">
<feFlood flood-opacity="0" result="BackgroundImageFix"/>
<feColorMatrix in="SourceAlpha" type="matrix" values="0 0 0 0 0 0 0 0 0 0 0 0 0 0 0 0 0 0 127 0" result="hardAlpha"/>
<feOffset dy="1"/>
<feGaussianBlur stdDeviation="4.5"/>
<feColorMatrix type="matrix" values="0 0 0 0 0.12549 0 0 0 0 0.0705882 0 0 0 0 0.227451 0 0 0 0.24 0"/>
<feBlend mode="normal" in2="BackgroundImageFix" result="effect1_dropShadow_951:14891"/>
<feBlend mode="normal" in="SourceGraphic" in2="effect1_dropShadow_951:14891" result="shape"/>
</filter>
<filter id="filter1_d_951:14891" x="58" y="119" width="99.988" height="99.988" filterUnits="userSpaceOnUse" color-interpolation-filters="sRGB">
<feFlood flood-opacity="0" result="BackgroundImageFix"/>
<feColorMatrix in="SourceAlpha" type="matrix" values="0 0 0 0 0 0 0 0 0 0 0 0 0 0 0 0 0 0 127 0" result="hardAlpha"/>
<feOffset dy="1"/>
<feGaussianBlur stdDeviation="4.5"/>
<feColorMatrix type="matrix" values="0 0 0 0 0.12549 0 0 0 0 0.0705882 0 0 0 0 0.227451 0 0 0 0.24 0"/>
<feBlend mode="normal" in2="BackgroundImageFix" result="effect1_dropShadow_951:14891"/>
<feBlend mode="normal" in="SourceGraphic" in2="effect1_dropShadow_951:14891" result="shape"/>
</filter>
<filter id="filter2_d_951:14891" x="246" y="-6" width="88.985" height="88.985" filterUnits="userSpaceOnUse" color-interpolation-filters="sRGB">
<feFlood flood-opacity="0" result="BackgroundImageFix"/>
<feColorMatrix in="SourceAlpha" type="matrix" values="0 0 0 0 0 0 0 0 0 0 0 0 0 0 0 0 0 0 127 0" result="hardAlpha"/>
<feOffset dy="1"/>
<feGaussianBlur stdDeviation="4.5"/>
<feColorMatrix type="matrix" values="0 0 0 0 0.12549 0 0 0 0 0.0705882 0 0 0 0 0.227451 0 0 0 0.24 0"/>
<feBlend mode="normal" in2="BackgroundImageFix" result="effect1_dropShadow_951:14891"/>
<feBlend mode="normal" in="SourceGraphic" in2="effect1_dropShadow_951:14891" result="shape"/>
</filter>
<filter id="filter3_d_951:14891" x="180" y="108" width="73.074" height="73.074" filterUnits="userSpaceOnUse" color-interpolation-filters="sRGB">
<feFlood flood-opacity="0" result="BackgroundImageFix"/>
<feColorMatrix in="SourceAlpha" type="matrix" values="0 0 0 0 0 0 0 0 0 0 0 0 0 0 0 0 0 0 127 0" result="hardAlpha"/>
<feOffset dy="1"/>
<feGaussianBlur stdDeviation="4.5"/>
<feColorMatrix type="matrix" values="0 0 0 0 0.12549 0 0 0 0 0.0705882 0 0 0 0 0.227451 0 0 0 0.24 0"/>
<feBlend mode="normal" in2="BackgroundImageFix" result="effect1_dropShadow_951:14891"/>
<feBlend mode="normal" in="SourceGraphic" in2="effect1_dropShadow_951:14891" result="shape"/>
</filter>
<clipPath id="clip0_951:14891">
<rect width="335" height="223" fill="white"/>
</clipPath>
</defs>
</svg>
